packages/core/src/svgs/tokens/mono/KOM.svg

<svg width="24" height="24" viewBox="0 0 24 24" fill="none" xmlns="http://www.w3.org/2000/svg">
<path d="M15.75 15.35V13.25L18.25 11.9999L18.3126 16.6499L15.75 15.35Z" fill="white"/>
<path d="M10.5689 12.0251L16.4125 8.62499L16.7563 5.15625L7.58134 9.21879V12.0251H10.5689ZM18.2688 22L20.7501 20.4374L8.22509 13.2124L5.44385 14.65L18.2688 22Z" fill="white"/>
<path d="M3.25 3.16873L5.75 2V19.275L3.25 20.4437V3.16873ZM15.7499 3.53125L18.2499 2V8.60623L15.7499 9.81246V3.53125Z" fill="white"/>
<path d="M20.75 3.46874L18.2499 2V8.56248L20.75 9.81246V3.46874ZM8.24998 3.16873L5.75 2V19.275L8.24998 20.4437V3.16873Z" fill="white"/>
<path d="M5.75 18.8749L3.25 20.4373L5.74374 21.9999L8.24998 20.4373L5.75 18.8749ZM18.2499 8.24988L15.7499 9.81236L18.2499 11.3748L20.75 9.81236L18.2499 8.24988Z" fill="white"/>
<path d="M5.75 9.16248L18.2499 2V5.08123L5.75 12V9.16248Z" fill="white"/>
<path d="M5.75 11.9999L20.75 20.4374V13.25L18.2499 11.9999V16.3749L8.23123 10.6062L5.75 11.9999Z" fill="white"/>
</svg>

<svg xmlns="http://www.w3.org/2000/svg" width="24" height="24" fill="none" viewBox="0 0 24 24">
    <path fill="#fff" d="M15.75 15.35v-2.1l2.5-1.25.063 4.65zm-5.181-3.325 5.844-3.4.343-3.469L7.581 9.22v2.806zm7.7 9.975 2.481-1.563-12.525-7.225-2.781 1.438z"/>
    <path fill="#fff" d="M3.25 3.169 5.75 2v17.275l-2.5 1.169zm12.5.362L18.25 2v6.606l-2.5 1.206zm5-.062L18.25 2v6.562l2.5 1.25zm-12.5-.3L5.75 2v17.275l2.5 1.169z"/>
    <path fill="#fff" d="m5.75 18.875-2.5 1.562L5.744 22l2.506-1.563zM18.25 8.25l-2.5 1.562 2.5 1.563 2.5-1.563zm-12.5.912L18.25 2v3.081L5.75 12z"/>
    <path fill="#fff" d="m5.75 12 15 8.437V13.25L18.25 12v4.375L8.23 10.606z"/>
</svg>
